!!!COM: Mantzaros, Nikolaos
!!!CDT: 1842-1891
!!!OTL: National Anthem, Cyprus
!!!ENC: Davis, Matthew J.
!!Vocal Line Only
**kern
*clefG2
*k[b-]
*F:
*M3/4
=1-
8.a
16b-
=2
4..cc
16b-
8.a
16b-
=3
4cc
8a
8r
8.b-
16cc
=4
4..dd
16dd
8.ee
16ee
=5
[4dd
8dd]
8r
8.g
16a
=6
4..b-
16a
8.g
16a
=7
4b-
8g
8r
8.cc
16cc
=8
4..ee
16dd
8.cc
16b-
=9
[4a
8a]
8r
8.a
16a
=10
4..dd
16ff
8.ee
16cc#
=11
4dd
8a
8r
8.a
16a
=12
4..dd
16ff
8.ee
16cc#
=13
[4dd
8dd]
8r
8.cc
16cc
=14
4cc
8ee
8r
8.cc
16cc
=15
4cc
8ff
8r
8.cc
16cc
=16
4cc
8ee
16r
16cc
8.dd
16ee
=17
[4ff
8ff]
8r
8.ff
16ee
=18
4ee
8dd
8r
8.dd
16cc
=19
4cc
8b-
8r
8.dd
16dd
=20
4..cc
16a
8.b-
16g
=21
4b-
8a
8r
8.ff
16ee
=22
4ee
8dd
8r
8.dd
16cc
=23
4cc
8b-
8r
8.dd
16dd
=24
4..cc
16a
8.b-
16g
=25
[4f
8f]
8r
==|!
*-
